public/markers/home.svg

<svg xmlns="http://www.w3.org/2000/svg" xmlns:xlink="http://www.w3.org/1999/xlink"
    viewBox="0 0 30 30">
    <g id="surface1">
        <path style=" stroke:none;fill-rule:nonzero;fill-opacity:1;"
            d="M 29.496094 13.65625 L 24.949219 9.109375 L 24.949219 3.859375 C 24.949219 2.90625 24.179688 2.136719 23.230469 2.136719 C 22.28125 2.136719 21.511719 2.90625 21.511719 3.859375 L 21.511719 5.671875 L 18.125 2.285156 C 16.453125 0.613281 13.542969 0.617188 11.871094 2.289062 L 0.503906 13.65625 C -0.167969 14.328125 -0.167969 15.417969 0.503906 16.089844 C 1.175781 16.761719 2.265625 16.761719 2.9375 16.089844 L 14.304688 4.71875 C 14.671875 4.351562 15.328125 4.351562 15.695312 4.71875 L 27.0625 16.089844 C 27.386719 16.410156 27.824219 16.59375 28.28125 16.589844 C 28.71875 16.589844 29.160156 16.425781 29.496094 16.089844 C 30.167969 15.417969 30.167969 14.328125 29.496094 13.65625 Z M 29.496094 13.65625 " />
        <path style=" stroke:none;fill-rule:nonzero;fill-opacity:1;"
            d="M 15.597656 7.984375 C 15.265625 7.652344 14.730469 7.652344 14.402344 7.984375 L 4.402344 17.980469 C 4.246094 18.140625 4.15625 18.355469 4.15625 18.578125 L 4.15625 25.871094 C 4.15625 27.582031 5.542969 28.96875 7.253906 28.96875 L 12.203125 28.96875 L 12.203125 21.300781 L 17.792969 21.300781 L 17.792969 28.96875 L 22.746094 28.96875 C 24.457031 28.96875 25.84375 27.582031 25.84375 25.871094 L 25.84375 18.578125 C 25.84375 18.355469 25.753906 18.136719 25.597656 17.980469 Z M 15.597656 7.984375 " />
    </g>
</svg>

<svg xmlns="http://www.w3.org/2000/svg" viewBox="0 0 30 30"><path d="M29.496 13.656 24.95 9.11V3.86a1.72 1.72 0 1 0-3.437 0v1.813l-3.387-3.387C16.453.613 13.543.617 11.871 2.29L.504 13.656a1.721 1.721 0 0 0 2.433 2.434L14.306 4.719c.367-.367 1.023-.367 1.39 0l11.367 11.37c.325.321.762.505 1.22.5.437 0 .878-.163 1.214-.5a1.721 1.721 0 0 0 0-2.433Zm0 0" style="stroke:none;fill-rule:nonzero;fill-opacity:1"/><path d="M15.598 7.984a.842.842 0 0 0-1.196 0l-10 9.996a.86.86 0 0 0-.246.598v7.293a3.097 3.097 0 0 0 3.098 3.098h4.95V21.3h5.589v7.668h4.953a3.097 3.097 0 0 0 3.098-3.098v-7.293a.852.852 0 0 0-.246-.598Zm0 0" style="stroke:none;fill-rule:nonzero;fill-opacity:1"/></svg>
